svg/color/aethc.svg

<?xml version="1.0" encoding="UTF-8" ?>
<!DOCTYPE svg PUBLIC "-//W3C//DTD SVG 1.1//EN" "http://www.w3.org/Graphics/SVG/1.1/DTD/svg11.dtd">
<svg width="250pt" height="250pt" viewBox="0 0 250 250" version="1.1" xmlns="http://www.w3.org/2000/svg">
<g id="#ffffffff">
<path fill="#ffffff" opacity="1.00" d=" M 0.00 0.00 L 119.57 0.00 C 115.32 1.37 111.12 2.97 107.26 5.23 C 84.48 18.48 61.55 31.48 38.81 44.80 C 33.83 47.80 28.52 50.32 24.00 54.00 C 16.64 60.00 12.46 69.50 12.48 78.94 C 12.48 109.31 12.51 139.68 12.47 170.05 C 12.23 179.12 15.80 188.32 22.41 194.59 C 26.41 198.50 31.51 200.93 36.28 203.73 C 55.69 215.02 75.13 226.25 94.61 237.41 C 102.74 241.95 110.47 247.50 119.56 250.00 L 0.00 250.00 L 0.00 0.00 Z" />
<path fill="#ffffff" opacity="1.00" d=" M 130.44 0.00 L 250.00 0.00 L 250.00 250.00 L 130.43 250.00 C 134.92 248.57 139.32 246.81 143.38 244.40 C 166.16 231.15 189.08 218.14 211.82 204.83 C 218.17 201.02 225.23 197.88 230.01 192.01 C 235.87 185.14 238.10 175.87 237.54 167.00 C 237.48 140.66 237.52 114.33 237.52 88.00 C 237.47 83.22 237.78 78.41 237.11 73.67 C 235.94 66.80 232.68 60.22 227.59 55.41 C 223.22 51.17 217.61 48.62 212.45 45.53 C 191.38 33.22 170.18 21.14 149.07 8.91 C 143.18 5.31 137.12 1.88 130.44 0.00 Z" />
</g>
<g id="#ffe81cff">
<path fill="#ffe81c" opacity="1.00" d=" M 119.57 0.00 L 130.44 0.00 C 137.12 1.88 143.18 5.31 149.07 8.91 C 170.18 21.14 191.38 33.22 212.45 45.53 C 217.61 48.62 223.22 51.17 227.59 55.41 C 232.68 60.22 235.94 66.80 237.11 73.67 C 237.78 78.41 237.47 83.22 237.52 88.00 C 237.52 114.33 237.48 140.66 237.54 167.00 C 238.10 175.87 235.87 185.14 230.01 192.01 C 225.23 197.88 218.17 201.02 211.82 204.83 C 189.08 218.14 166.16 231.15 143.38 244.40 C 139.32 246.81 134.92 248.57 130.43 250.00 L 119.56 250.00 C 110.47 247.50 102.74 241.95 94.61 237.41 C 75.13 226.25 55.69 215.02 36.28 203.73 C 31.51 200.93 26.41 198.50 22.41 194.59 C 15.80 188.32 12.23 179.12 12.47 170.05 C 12.51 139.68 12.48 109.31 12.48 78.94 C 12.46 69.50 16.64 60.00 24.00 54.00 C 28.52 50.32 33.83 47.80 38.81 44.80 C 61.55 31.48 84.48 18.48 107.26 5.23 C 111.12 2.97 115.32 1.37 119.57 0.00 M 118.12 68.09 C 108.67 84.02 99.47 100.09 90.00 116.02 C 87.86 119.55 85.72 123.08 83.93 126.81 L 84.59 126.44 C 97.17 134.63 110.31 141.94 123.03 149.90 C 125.20 151.80 127.56 149.56 129.53 148.49 C 141.52 140.86 154.09 134.11 165.86 126.15 C 152.42 103.26 139.14 80.27 125.39 57.56 L 125.43 56.71 C 122.52 60.18 120.45 64.23 118.12 68.09 M 84.92 135.19 C 85.98 137.05 87.10 138.88 88.34 140.63 C 98.53 155.13 108.48 169.80 118.64 184.33 C 120.74 187.46 122.79 190.65 125.48 193.33 L 125.42 192.49 C 136.04 177.99 145.95 162.97 156.28 148.27 C 159.27 143.91 162.48 139.69 165.15 135.11 C 151.62 142.84 138.27 150.94 125.01 159.13 C 116.02 153.32 106.67 148.09 97.55 142.48 C 93.38 139.98 89.33 137.26 84.92 135.19 Z" />
</g>
<g id="#8c800fff">
<path fill="#8c800f" opacity="1.00" d=" M 118.12 68.09 C 120.45 64.23 122.52 60.18 125.43 56.71 L 125.39 57.56 C 124.56 73.98 125.59 90.44 124.90 106.86 C 111.89 114.19 97.62 119.10 84.59 126.44 L 83.93 126.81 C 85.72 123.08 87.86 119.55 90.00 116.02 C 99.47 100.09 108.67 84.02 118.12 68.09 Z" />
<path fill="#8c800f" opacity="1.00" d=" M 84.92 135.19 C 89.33 137.26 93.38 139.98 97.55 142.48 C 106.67 148.09 116.02 153.32 125.01 159.13 C 125.37 170.25 124.66 181.38 125.42 192.49 L 125.48 193.33 C 122.79 190.65 120.74 187.46 118.64 184.33 C 108.48 169.80 98.53 155.13 88.34 140.63 C 87.10 138.88 85.98 137.05 84.92 135.19 Z" />
</g>
<g id="#2c2805ff">
<path fill="#2c2805" opacity="1.00" d=" M 124.90 106.86 C 125.59 90.44 124.56 73.98 125.39 57.56 C 139.14 80.27 152.42 103.26 165.86 126.15 C 154.09 134.11 141.52 140.86 129.53 148.49 C 127.56 149.56 125.20 151.80 123.03 149.90 C 110.31 141.94 97.17 134.63 84.59 126.44 C 97.62 119.10 111.89 114.19 124.90 106.86 Z" />
<path fill="#2c2805" opacity="1.00" d=" M 125.01 159.13 C 138.27 150.94 151.62 142.84 165.15 135.11 C 162.48 139.69 159.27 143.91 156.28 148.27 C 145.95 162.97 136.04 177.99 125.42 192.49 C 124.66 181.38 125.37 170.25 125.01 159.13 Z" />
</g>
</svg>

<?xml version="1.0" encoding="utf-8"?>
<!-- Generator: Adobe Illustrator 26.0.3, SVG Export Plug-In . SVG Version: 6.00 Build 0)  -->
<svg version="1.1" id="Layer_1" xmlns="http://www.w3.org/2000/svg" xmlns:xlink="http://www.w3.org/1999/xlink" x="0px" y="0px"
	 viewBox="0 0 250 250" style="enable-background:new 0 0 250 250;" xml:space="preserve">
<style type="text/css">
	.st0{fill:#FFE81C;}
	.st1{fill:#8C800F;}
	.st2{fill:#2C2805;}
</style>
<g id="_x23_ffe81cff">
	<path class="st0" d="M119.6,0h10.9c6.7,1.9,12.7,5.3,18.6,8.9c21.1,12.2,42.3,24.3,63.4,36.6c5.2,3.1,10.8,5.6,15.1,9.9
		c5.1,4.8,8.4,11.4,9.5,18.3c0.7,4.7,0.4,9.6,0.4,14.3c0,26.3,0,52.7,0,79c0.6,8.9-1.7,18.1-7.5,25c-4.8,5.9-11.8,9-18.2,12.8
		c-22.7,13.3-45.7,26.3-68.4,39.6c-4.1,2.4-8.5,4.2-13,5.6h-10.9c-9.1-2.5-16.8-8.1-24.9-12.6c-19.5-11.2-38.9-22.4-58.3-33.7
		c-4.8-2.8-9.9-5.2-13.9-9.1c-6.6-6.3-10.2-15.5-9.9-24.5c0-30.4,0-60.7,0-91.1C12.5,69.5,16.6,60,24,54c4.5-3.7,9.8-6.2,14.8-9.2
		c22.7-13.3,45.7-26.3,68.4-39.6C111.1,3,115.3,1.4,119.6,0 M118.1,68.1C108.7,84,99.5,100.1,90,116c-2.1,3.5-4.3,7.1-6.1,10.8
		l0.7-0.4c12.6,8.2,25.7,15.5,38.4,23.5c2.2,1.9,4.5-0.3,6.5-1.4c12-7.6,24.6-14.4,36.3-22.3c-13.4-22.9-26.7-45.9-40.5-68.6l0-0.9
		C122.5,60.2,120.4,64.2,118.1,68.1 M84.9,135.2c1.1,1.9,2.2,3.7,3.4,5.4c10.2,14.5,20.1,29.2,30.3,43.7c2.1,3.1,4.2,6.3,6.8,9
		l-0.1-0.8c10.6-14.5,20.5-29.5,30.9-44.2c3-4.4,6.2-8.6,8.9-13.2c-13.5,7.7-26.9,15.8-40.1,24c-9-5.8-18.3-11-27.5-16.7
		C93.4,140,89.3,137.3,84.9,135.2z"/>
</g>
<g id="_x23_8c800fff">
	<path class="st1" d="M118.1,68.1c2.3-3.9,4.4-7.9,7.3-11.4l0,0.9c-0.8,16.4,0.2,32.9-0.5,49.3c-13,7.3-27.3,12.2-40.3,19.6
		l-0.7,0.4c1.8-3.7,3.9-7.3,6.1-10.8C99.5,100.1,108.7,84,118.1,68.1z"/>
	<path class="st1" d="M84.9,135.2c4.4,2.1,8.5,4.8,12.6,7.3c9.1,5.6,18.5,10.8,27.5,16.7c0.4,11.1-0.3,22.2,0.4,33.4l0.1,0.8
		c-2.7-2.7-4.7-5.9-6.8-9c-10.2-14.5-20.1-29.2-30.3-43.7C87.1,138.9,86,137.1,84.9,135.2z"/>
</g>
<g id="_x23_2c2805ff">
	<path class="st2" d="M124.9,106.9c0.7-16.4-0.3-32.9,0.5-49.3c13.8,22.7,27,45.7,40.5,68.6c-11.8,8-24.3,14.7-36.3,22.3
		c-2,1.1-4.3,3.3-6.5,1.4c-12.7-8-25.9-15.3-38.4-23.5C97.6,119.1,111.9,114.2,124.9,106.9z"/>
	<path class="st2" d="M125,159.1c13.3-8.2,26.6-16.3,40.1-24c-2.7,4.6-5.9,8.8-8.9,13.2C145.9,163,136,178,125.4,192.5
		C124.7,181.4,125.4,170.2,125,159.1z"/>
</g>
</svg>
